images/monospace.svg

<?xml version="1.0" encoding="UTF-8" standalone="no"?>
<svg width="13px" height="15px" viewBox="0 0 13 15" version="1.1" xmlns="http://www.w3.org/2000/svg" xmlns:xlink="http://www.w3.org/1999/xlink">
    <!-- Generator: Sketch 40.3 (33839) - http://www.bohemiancoding.com/sketch -->
    <title>code</title>
    <desc>Created with Sketch.</desc>
    <defs></defs>
    <g id="Page-1" stroke="none" stroke-width="1" fill="none" fill-rule="evenodd">
        <g id="code" fill="#444444">
            <g id="Page-1">
                <g>
                    <g id="code">
                        <g id="Group">
                            <path d="M1.02142857,2.90625 C1.20714286,4.125 1.39285714,4.40625 1.39285714,5.625 C1.39285714,6.375 0,7.03125 0,7.03125 L0,7.96875 C0,7.96875 1.39285714,8.625 1.39285714,9.375 C1.39285714,10.59375 1.20714286,10.875 1.02142857,12.09375 C0.742857143,14.0625 1.76428571,15 2.69285714,15 L4.64285714,15 L4.64285714,13.125 C4.64285714,13.125 2.97142857,13.3125 2.97142857,12.1875 C2.97142857,11.34375 3.15714286,11.34375 3.34285714,9.46875 C3.43571429,8.625 2.87857143,7.96875 2.32142857,7.5 C2.87857143,7.03125 3.43571429,6.46875 3.34285714,5.625 C3.06428571,3.75 2.97142857,3.75 2.97142857,2.90625 C2.97142857,1.78125 4.64285714,1.875 4.64285714,1.875 L4.64285714,0 L2.69285714,0 C1.67142857,0 0.742857143,0.9375 1.02142857,2.90625 L1.02142857,2.90625 L1.02142857,2.90625 Z" id="Shape"></path>
                            <path d="M11.9785714,2.90625 C11.7928571,4.125 11.6071429,4.40625 11.6071429,5.625 C11.6071429,6.375 13,7.03125 13,7.03125 L13,7.96875 C13,7.96875 11.6071429,8.625 11.6071429,9.375 C11.6071429,10.59375 11.7928571,10.875 11.9785714,12.09375 C12.2571429,14.0625 11.2357143,15 10.3071429,15 L8.35714286,15 L8.35714286,13.125 C8.35714286,13.125 10.0285714,13.3125 10.0285714,12.1875 C10.0285714,11.34375 9.84285714,11.34375 9.65714286,9.46875 C9.56428571,8.625 10.1214286,7.96875 10.6785714,7.5 C10.1214286,7.03125 9.56428571,6.46875 9.65714286,5.625 C9.84285714,3.75 10.0285714,3.75 10.0285714,2.90625 C10.0285714,1.78125 8.35714286,1.875 8.35714286,1.875 L8.35714286,0 L10.3071429,0 C11.3285714,0 12.2571429,0.9375 11.9785714,2.90625 L11.9785714,2.90625 L11.9785714,2.90625 Z" id="Shape"></path>
                        </g>
                    </g>
                </g>
            </g>
        </g>
    </g>
</svg>

<svg width="13" height="15" xmlns="http://www.w3.org/2000/svg"><g fill="#444" fill-rule="evenodd"><path d="M1.021 2.906c.186 1.219.372 1.5.372 2.719C1.393 6.375 0 7.031 0 7.031v.938s1.393.656 1.393 1.406c0 1.219-.186 1.5-.372 2.719C.743 14.063 1.764 15 2.693 15h1.95v-1.875s-1.672.188-1.672-.938c0-.843.186-.843.372-2.718.093-.844-.464-1.5-1.022-1.969.558-.469 1.115-1.031 1.022-1.875C3.064 3.75 2.97 3.75 2.97 2.906c0-1.125 1.672-1.031 1.672-1.031V0h-1.95C1.67 0 .743.938 1.02 2.906zM11.979 2.906c-.186 1.219-.372 1.5-.372 2.719 0 .75 1.393 1.406 1.393 1.406v.938s-1.393.656-1.393 1.406c0 1.219.186 1.5.372 2.719.278 1.969-.743 2.906-1.672 2.906h-1.95v-1.875s1.672.188 1.672-.938c0-.843-.186-.843-.372-2.718-.093-.844.464-1.5 1.022-1.969-.558-.469-1.115-1.031-1.022-1.875.186-1.875.372-1.875.372-2.719 0-1.125-1.672-1.031-1.672-1.031V0h1.95c1.022 0 1.95.938 1.672 2.906z"/></g></svg>
